X:3
T:America
T:(My Country, 'Tis of Thee)
T:First sung in Park Street Church, Boston, July 4, 1832.
%%titlespace 30pt
%%LineSep 20pt
% Four-part piano arrangement for standard notation.
C:Samuel Francis Smith/Attributed to Henry Carey
S:Source "The One Hundred and One Best Songs" - The Cable Company - 1919 - Chicago, Illinois
M:3/4
L:1/4
Q:1/4=88
%%staves [(1 2) (3 4)]
K:G
V:1 clef=treble
G G A | F>G A | B B c | B>A G | A G F | G3 | d d d |
%%vocalfont Times-Roman 11.0
w:1.~My coun-try 'tis of thee, Sweet land of lib-er-ty, Of thee I sing; Land where my
w:2.~My na-tive coun-try, thee, Land of the no-ble free, Thy name I love: I love thy
w:3.~Let mu-sic swell the breeze, And ring thro' all the trees Sweet free-dom's song; Let mor-tal
w:4.~Our fa-thers' God, to Thee, Au-thor of lib-er-ty, To Thee we sing; Long may our
V:2 clef=treble
D D E | D>E F | G G A | G>F E | E D D | D3 | B B B |
V:3 clef=bass
%%MIDI transpose -24
%%jsastem=up
b b c' | a>a d' | d' e' e' | d'>c' b | c' b a | b3 | d' d' d' |
V:4 clef=bass
%%MIDI transpose -24
%%jsastem=dn
g g c | d>d d | g e c | d>^d e | c d d | g3 | g b d' |
V:1
d>c B | c c c | c>B A | B c/B/ A/G/ | B>c d | e/c/ B A | G3 |]
w:fa-thers died, Land of the Pil-grims' pride, From ev\-*ry* moun-tain-side Let* free-dom ring.
w:rocks and rills, Thy woods and temp-led hills; My heart* with* rap-ture thrills Like* that a-bove.
w:tongues a-wake; Let all that breathe par-take; Let rocks* their* si-lence break, The* sound pro-long.
w:land be bright With free-dom's ho-ly light; Pro-tect* us* by Thy might, Great* God, our King.
V:2
B>A G | A A A | A>G F | G G D | G>G G | G G F | D3 |]
V:3
d'>d' d' | d' d' d' | d'>d' d' | d' e'/d'/ c'/b/ | d'>d' d' | c'/e'/ d' c' | b3 |]
V:4
g>g g | d f a | d>d d | g g g | g>a b | c' d' d | [g3G] |]

